!!!COM: Mozart, Wolfgang Amadeus
!!!OTL: String Quartet No. 23 in F Major
!!!OMD: Menuetto: Allegretto
!!!OMV: 3
!!!SCT1: K<sup>1</sup> 590
!!!SCA: Chronologisch-thematisches Verzeichnis sämtlicher Tonwerke Wolfgang Amade Mozarts (L. von Köchel; 1862, 2/1905, 3/1937, 1947)
!!!SCT2: K<sup>6</sup> 590
!!!YOR: Breitkopf & Härtel Edition
!!!ENC: Frances Bennion
!!!CDT: 1756/1/27/-1791/12/5/
!!!OCY: Österreich
!!!YEC: Copyright (c) 1994, 2000 Center for Computer Assisted Research in the Humanities
!!!YEM: Rights to all derivative editions reserved.
!!!YEM: Refer to licensing agreement for further details.
!!!YEN: United States of America
**kern	**kern	**kern	**kern
*k[b-]	*k[b-]	*k[b-]	*k[b-]
*F:	*F:	*F:	*F:
*clefC	*clefF	*clefG	*clefG
*M3/4	*M3/4	*M3/4	*M3/4
2r	2r	2r	2r
4r	4r	4r	8ff
.	.	.	8aa
=1	=1	=1	=1
2.r	2.r	2.r	4ccc
.	.	.	4ccc
.	.	.	4ccc
=2	=2	=2	=2
2.r	2.r	8f	2.ccc
.	.	8a	.
.	.	8f	.
.	.	8a	.
.	.	8f	.
.	.	8a	.
=3	=3	=3	=3
2.r	2.r	8g	2.ccc
.	.	8b-	.
.	.	8g	.
.	.	8b-	.
.	.	8g	.
.	.	8b-	.
=4	=4	=4	=4
2.r	2.r	8a	8ddd
.	.	8cc	8ccc
.	.	8a	8ddd
.	.	8cc	8ccc
.	.	8a	8ddd
.	.	8cc	8ccc
=5	=5	=5	=5
2.r	2.r	8b-	8ddd
.	.	8dd	8ccc
.	.	8b-	8bb-
.	.	8dd	8aa
.	.	8b-	[4gg
.	.	8dd	.
=6	=6	=6	=6
2.r	2.r	8cc	4gg]
.	.	8ee	.
.	.	8cc	4gg
.	.	8ee	.
.	.	8cc	4gg
.	.	8ee	.
=7	=7	=7	=7
2.r	2.r	4f	8gg
.	.	.	8aa
.	.	4r	4ff
.	.	8d	8dd
.	.	8f	8ff
=8	=8	=8	=8
8DD	4r	4a	4aa
8FF	.	.	.
8DD	8.f	4a	4aa
8FF	.	.	.
.	16a	.	.
8DD	4dd	4a	4aa
8FF	.	.	.
=9	=9	=9	=9
8EE	4r	2.a	2.aa
8C#	.	.	.
8EE	8.g	.	.
8C#	.	.	.
.	16cc#	.	.
8EE	4ee	.	.
8C#	.	.	.
=10	=10	=10	=10
8FF	4r	8b-	8bb-
8D	.	8a	8aa
8FF	8.f	8b-	8bb-
8D	.	8a	8aa
.	16a	.	.
8FF	4dd	8b-	8bb-
8D	.	8a	8aa
=11	=11	=11	=11
8DD	4r	8a-	8aa-
8BB	.	8g	8gg
8DD	8.f	8a-	8aa-
8BB	.	8g	8gg
.	16b	.	.
8DD	4dd	8a-	8aa-
8BB	.	8g	8gg
=12	=12	=12	=12
8EE	8.e	8a	8aa
8C	.	8g	8gg
.	16g	.	.
8EE	4cc	8a	8aa
8C	.	8g	8gg
8AA	4c	8f	8ff
8C	.	8e	8ee
=13	=13	=13	=13
4FF	4a	8e	8ee
.	.	8d	8dd
4r	4r	8d	8dd
.	.	8c	8cc
4GG	4B	8d	8dd
.	.	8e	8ee
=14	=14	=14	=14
4CC	4c	4c	4cc
4C	4r	4r	4r
4r	8E	8c	4r
.	8c	8e	.
=15	=15	=15	=15
2.r	4e	4g	2.r
.	4e	4g	.
.	4e	4g	.
=16	=16	=16	=16
4r	2.e	2.g	8ccc
.	.	.	8cc
4CC	.	.	8ccc
.	.	.	8cc
4C	.	.	8ccc
.	.	.	8cc
=17	=17	=17	=17
4r	2.f	2.a-	8ccc
.	.	.	8dd-
4CC	.	.	8ccc
.	.	.	8dd-
4C	.	.	8ccc
.	.	.	8dd-
=18	=18	=18	=18
4r	2.f#	2.a	8ccc
.	.	.	8dd
4CC	.	.	8ccc
.	.	.	8dd
4C	.	.	8ccc
.	.	.	8dd
=19	=19	=19	=19
[2.C	2g	2b-	8ccc
.	.	.	8ee-
.	.	.	8ccc
.	.	.	8ee
.	4a	4cc	8ccc
.	.	.	8ff
=20	=20	=20	=20
2.C_	4d#	[2.cc	8ccc
.	.	.	8ff#
.	4e	.	8ccc
.	.	.	8gg
.	4f	.	8ccc
.	.	.	8aa-
=21	=21	=21	=21
2.C_	4f#	2.cc_	8ccc
.	.	.	8aa
.	4g	.	8ccc
.	.	.	8bb-
.	4f	.	8ccc
.	.	.	8bb
=22	=22	=22	=22
2.C_	4e	2.cc_	8ccc
.	.	.	8bb-
.	4f	.	8ccc
.	.	.	8aa
.	4cc	.	8ccc
.	.	.	8aa-
=23	=23	=23	=23
2.C_	4b	2.cc]	8ccc
.	.	.	8gg
.	4b-	.	8ccc
.	.	.	8ff#
.	4a	.	8ccc
.	.	.	8ff
=24	=24	=24	=24
4C]	4g#	4b	8ccc
.	.	.	8ee
2CC	2g	2b-	8ccc
.	.	.	8ee-
.	.	.	8ccc
.	.	.	8ee-
=25	=25	=25	=25
4C	4f#	4a	8ccc
.	.	.	8dd
2CC	2f	2a-	8ccc
.	.	.	8dd-
.	.	.	8ccc
.	.	.	8dd-
=26	=26	=26	=26
4C	4e	4g	8cc
.	.	.	8ee
4r	4r	4r	8gg
.	.	.	8ccc
4GG	4g	4f	8dd
.	.	.	8bb
=27	=27	=27	=27
4C	4G	4e	8cc
.	.	.	8ee
4r	4r	4r	8gg
.	.	.	8ccc
4GG	4g	4f	8dd
.	.	.	8bb
=28	=28	=28	=28
8C	8G	4e	4ccc
8BB	8B	.	.
8C	8c	2r	2r
8BB-	8B-	.	.
8AA	8A	.	.
8C	8c	.	.
=29	=29	=29	=29
4F	4f	2.r	2.r
4FF	4F	.	.
4FF	4F	.	.
=30	=30	=30	=30
2.FF	8ff	4r	4r
.	8f	.	.
.	8ff	8.a	8.aa
.	8f	.	.
.	.	16cc	16ccc
.	8ff	4ee-	4eee-
.	8f	.	.
=31	=31	=31	=31
2.FF	8ff	4r	4r
.	8f	.	.
.	8ff	8.d	8.dd
.	8f	.	.
.	.	16b-	16bb-
.	8ff	4dd	4ddd
.	8f	.	.
=32	=32	=32	=32
8GG	8ee	4r	4r
8FF	8e	.	.
8GG	8ee	8.g	8.gg
8FF	8e	.	.
.	.	16b-	16bb-
8GG	8ee	4dd-	4ddd-
8FF	8e	.	.
=33	=33	=33	=33
8GG	8ee-	4r	4r
8FF	8e-	.	.
8GG	8ee-	8.c	8.cc
8FF	8e-	.	.
.	.	16a	16aa
8GG	8ee-	4cc	4ccc
8FF	8e-	.	.
=34	=34	=34	=34
8GG	8dd	4r	4r
8FF	8d	.	.
8GG	8dd	8.c	8.cc
8FF	8d	.	.
.	.	16f	16ff
8GG	8dd	4cc	4ccc
8FF	8d	.	.
=35	=35	=35	=35
8GG	8dd-	4r	4r
8FF	8d-	.	.
8GG	8dd-	8.B	8.b
8FF	8d-	.	.
.	.	16a-	16aa-
8GG	8dd-	4b	4bb
8FF	8d-	.	.
=36	=36	=36	=36
8EE	8c	4cc	4ccc
8GG	8e	.	.
8CC	4g	4b-	4bb-
8EE	.	.	.
8FF	4f	4a	4aa
8AA	.	.	.
=37	=37	=37	=37
8BB-	8d	4g	4gg
8GG	8B-	.	.
8C	4A	4f	4ff
8BB-	.	.	.
8C	4G	4e	4ee
8CC	.	.	.
=38	=38	=38	=38
4FF	4A	4f	8ff
.	.	.	8aa
2r	2r	2r	8bb-
.	.	.	8ccc
.	.	.	8ddd
.	.	.	8eee
=39	=39	=39	=39
4r	4r	4r	4fff
4d	4f	4a	4fff
4d	4f	4a	4fff
=40	=40	=40	=40
4r	4r	4r	2.ggg
4B-	4f	4dd	.
4B-	4f	4dd	.
=41	=41	=41	=41
4r	4r	4r	[2ccc
4c	4e	4g	.
4c	4g	4b-	8ccc]
.	.	.	16ddd
.	.	.	16eee
=42	=42	=42	=42
4F	4f	4a	4fff
4r	4r	4r	4r
4r	4f	4a	4r
=43	=43	=43	=43
2.r	8g	8b-	4r
.	8a	8cc	.
.	8b-	8dd	8ccc
.	8a	8cc	8r
.	8g	8b-	8ccc
.	8f	8a	8r
=44	=44	=44	=44
2.r	8e	8g	8ccc
.	8f	8a	8r
.	8g	8b-	8ccc
.	8f	8a	8r
.	8e	8g	8ccc
.	8d	8f	8r
=45	=45	=45	=45
2C	4c	4e	4ccc
.	4B-	4g	4ee
4F	4A	4f	4ff
=46	=46	=46	=46
8C	8c	8e	8gg
8r	8r	8r	8r
8FF	8d	8cc	8aa
8r	8r	8r	8r
8GG	8g	8ff	8bb
8r	8r	8r	8r
=47	=47	=47	=47
8CC	4g	4ee	4ccc
8r	.	.	.
8C	4r	4r	2r
4.r	.	.	.
.	4f	4a	.
=48	=48	=48	=48
2.r	8g	8b-	4r
.	8a	8cc	.
.	8b-	8dd	8ccc
.	8a	8cc	8r
.	8g	8b-	8ccc
.	8f	8a	8r
=49	=49	=49	=49
2.r	8e	8g	8ccc
.	8f	8a	8r
.	8g	8b-	8ccc
.	8f	8a	8r
.	8e	8g	8ccc
.	8d	8f	8r
=50	=50	=50	=50
2C	4c	4e	4ccc
.	4B-	4g	4eee
4D	4A	4f	4fff
=51	=51	=51	=51
4BB-	4G	4f	8ddd
.	.	.	8r
4r	4r	4r	8bb-
.	.	.	8r
4C	4c	4e	8gg
.	.	.	8r
=52	=52	=52	=52
8FF	4c	4f	4ff
8r	.	.	.
8F	4r	4r	4r
8r	.	.	.
4FF	8B-	8d	4bb-
.	8d	8f	.
=53	=53	=53	=53
[2.FF	8c	8e-	2aa
.	8B-	8d	.
.	8c	8e-	.
.	8F	8c	.
.	8B-	8d	4bb-
.	8d	8f	.
=54	=54	=54	=54
2.FF_	8c	8e-	8aa
.	8B-	8d	8gg
.	8c	8e-	8aa
.	8A	8c	8ff
.	8B-	8d	8ddd
.	8d	8f	8bb-
=55	=55	=55	=55
2.FF]	8c	8e-	2aa
.	8B-	8d	.
.	8c	8e-	.
.	8F	8c	.
.	8B-	8d	4bb-
.	8d	8f	.
=56	=56	=56	=56
4r	8c	8e-	8aa
.	8B-	8d	8gg
4F	8c	8e-	8aa
.	8A	8c	8ff
4BB-	8B-	8d	8ddd
.	8d	8f	8bb-
=57	=57	=57	=57
4r	8A	8c	8ff#
.	8G	8B-	8ee
4D	8A	8c	8ff#
.	8F#	8A	8dd
4GG	8G	8B-	8bb-
.	8B-	8d	8gg
=58	=58	=58	=58
4r	8G	8B-	8ee
.	8F	8A	8dd
4C	8G	8B-	8ee
.	8E	8G	8cc
4FF	8F	8A	8aa
.	8A	8c	8ff
=59	=59	=59	=59
4BB-	4B-	4d	8gg
.	.	.	8r
4r	4r	4r	8bb-
.	.	.	8r
4BB	8A-	4f	8ddd
.	8F	.	8r
=60	=60	=60	=60
2C	4c	4a	4ff
.	4r	4g	4ee
4r	4f	4a	4r
=61	=61	=61	=61
2.r	8g	8b-	4r
.	8a	8cc	.
.	8b-	8dd	8ccc
.	8a	8cc	8r
.	8g	8b-	8ccc
.	8f	8a	8r
=62	=62	=62	=62
2.r	8e	8g	8ccc
.	8f	8a	8r
.	8g	8b-	8ccc
.	8f	8a	8r
.	8e	8g	8ccc
.	8d	8f	8r
=63	=63	=63	=63
2C	4c	4e	4ccc
.	4g	4b-	4ee
4F	4f	4a	4ff
=64	=64	=64	=64
8c	8e	8g	8gg
8r	8r	8r	8r
8F	8c	8d	8aa
8r	8r	8r	8r
8G	8g	8ff	8bb
8r	8r	8r	8r
=65	=65	=65	=65
4C	8g	4ee	4ccc
.	8r	.	.
4r	8c	2r	4r
.	4.r	.	.
4f	.	.	4aa
=66	=66	=66	=66
8g	4r	2.r	8bb-
8a	.	.	8ccc
8b-	8cc	.	8ddd
8a	8r	.	8ccc
8g	8cc	.	8bb-
8f	8r	.	8aa
=67	=67	=67	=67
8e	8cc	2.r	8gg
8f	8r	.	8aa
8g	8cc	.	8bb-
8f	8r	.	8aa
8e	8cc	.	8gg
8d	8r	.	8ff
=68	=68	=68	=68
8c	4cc	2.r	8ee
8B-	.	.	8dd
8A	4ee	.	8cc
8G	.	.	8b-
4F	4ff	.	4a
=69	=69	=69	=69
4BB-	8dd	2.r	2.r
.	8r	.	.
2r	8b-	.	.
.	8r	.	.
.	8g	.	.
.	8r	.	.
=70	=70	=70	=70
4C	8e	2r	2.r
.	8r	.	.
4r	8c	.	.
.	4.r	.	.
8f	.	4f	.
8r	.	.	.
=71	=71	=71	=71
8d	4r	4f	2.r
8r	.	.	.
8B-	4f	4b-	.
8r	.	.	.
8G	4B-	4dd	.
8r	.	.	.
=72	=72	=72	=72
8E	2b-	2.cc	2r
8r	.	.	.
8C	.	.	.
8r	.	.	.
4FF	4a	.	8fff
.	.	.	8r
=73	=73	=73	=73
4BB-	4f	4g	8ddd
.	.	.	8r
2r	2r	2r	8bb-
.	.	.	8r
.	.	.	8gg
.	.	.	8r
=74	=74	=74	=74
4C	4G	4B-	8ee
.	.	.	8r
4r	4r	4r	8ccc
.	.	.	8r
8CC	8c	8g	8ee
8r	8r	8r	8r
=75	=75	=75	=75
8FF	4c	4f	4ff
8r	.	.	.
8F	2r	2r	4r
4.r	.	.	.
.	.	.	4r
==	==	==	==
*-	*-	*-	*-
!!!RWG1: This file contains only pitch and duration data.
!!!RWG2: Transposing instruments are not transposed.
!!!RWG3: Spines may have incompatible meters.
!!!RWG4: Durations of rests and tied notes may be interpreted.
!!!RWG: Key is interpreted using the Humdrum key tool.
!!!AFT: stage1
!!!END: 1997/04/15
!!!KEY: 1806490855
!!!EMD: Converted from MuseData to Humdrum Dec 16, 2000, by Andreas Kornstaedt using muse2kern.
!!!EMD: Manual editing by Craig Sapp, Nov 2001
